assets/symbols/mulberry/glue.svg

<svg height="850.394" viewBox="0 0 850.394 850.394" width="850.394" xmlns="http://www.w3.org/2000/svg"><path d="m647.09 354.81h-66.89v-116.59h89.61v116.59zm0 369.07c0 11.96-9.689 21.65-21.64 21.65-5.97 0-11.391-2.42-15.311-6.34a21.579 21.579 0 0 1 -6.34-15.311v-369.069h43.29v369.07zm-130.8-362.57-.9 336.56s-1.729 36.36-36.43 51.74c0 0-64.68 26.149-140.3 23.359l1.98.07c-75.62 2.79-140.31-23.36-140.31-23.36-34.7-15.38-36.42-51.739-36.42-51.739l-.89-336.561c0-30.63 7.27-38.67 23.21-47.05 0 0 25.02-19.88 71.28-27.52l-1.33 4.96s15.9 18.68 84.32 18.68h2.08c68.42 0 83.59-18.68 83.59-18.68l-1.18-4.38c46.27 7.64 68.069 26.86 68.069 26.86 15.951 8.381 23.231 16.431 23.231 47.061z" fill="#fff"/><path d="m424.99 287.39 1.18 4.38s-15.17 18.68-83.59 18.68h-2.08c-68.42 0-84.32-18.68-84.32-18.68l1.33-4.96 19.75-73.55h127.82zm-84.49-74.13h-51.76v-1.2s12.74-68.07 21.29-103.06 53.42-35.74 61.97-.75c8.56 34.99 21.29 103.06 21.29 103.06v1.95z" fill="#f73900"/><g fill="none"><g stroke="#000" stroke-width="19.58"><path d="m424.99 287.39c46.27 7.64 68.069 26.86 68.069 26.86 15.95 8.38 23.23 16.43 23.23 47.06l-.9 336.56s-1.729 36.36-36.43 51.74c0 0-64.68 26.149-140.3 23.359l1.98.07c-75.62 2.79-140.31-23.36-140.31-23.36-34.7-15.38-36.42-51.739-36.42-51.739l-.89-336.561c0-30.63 7.27-38.67 23.21-47.05 0 0 25.02-19.88 71.28-27.52"/><path d="m257.51 286.81-1.33 4.96s15.9 18.68 84.32 18.68h2.08c68.42 0 83.59-18.68 83.59-18.68l-1.18-4.38-19.91-74.13h-127.82zm389.58 68v369.07c0 11.96-9.689 21.65-21.64 21.65-5.97 0-11.391-2.42-15.311-6.34a21.579 21.579 0 0 1 -6.34-15.311v-369.069m-210.509-143.5s-12.73-68.07-21.29-103.06c-8.55-34.99-53.42-34.24-61.97.75s-21.29 103.06-21.29 103.06m291.46 140.34v-114.18h89.61v114.18"/><path d="m569.82 354.81h111.55" stroke-linecap="round" stroke-linejoin="round"/></g><path d="m0 0h850.394v850.394h-850.394z"/></g></svg>

<svg xmlns="http://www.w3.org/2000/svg" width="850.394" height="850.394" viewBox="0 0 850.394 850.394" overflow="visible"><path fill="#fff" d="M647.09 354.81H580.2V238.22h89.61v116.59zM647.09 723.88c0 11.96-9.689 21.65-21.64 21.65-5.97 0-11.391-2.42-15.311-6.34a21.579 21.579 0 0 1-6.34-15.311V354.81h43.29v369.07zM516.29 361.31l-.9 336.56s-1.729 36.36-36.43 51.74c0 0-64.68 26.149-140.3 23.359l1.98.07c-75.62 2.79-140.31-23.36-140.31-23.36-34.7-15.38-36.42-51.739-36.42-51.739l-.89-336.561c0-30.63 7.27-38.67 23.21-47.05 0 0 25.02-19.88 71.28-27.52l-1.33 4.96s15.9 18.68 84.32 18.68h2.08c68.42 0 83.59-18.68 83.59-18.68l-1.18-4.38c46.27 7.64 68.069 26.86 68.069 26.86 15.951 8.381 23.231 16.431 23.231 47.061z"/><path d="M424.99 287.39l1.18 4.38s-15.17 18.68-83.59 18.68h-2.08c-68.42 0-84.32-18.68-84.32-18.68l1.33-4.96 19.75-73.55h127.82l19.91 74.13zM340.5 213.26h-51.76v-1.2s12.74-68.07 21.29-103.06c8.55-34.99 53.42-35.74 61.97-.75 8.56 34.99 21.29 103.06 21.29 103.06v1.95H340.5z" fill="#f73900"/><g fill="none" stroke="#000" stroke-width="19.58"><path d="M424.99 287.39c46.27 7.64 68.069 26.86 68.069 26.86 15.95 8.38 23.23 16.43 23.23 47.06l-.9 336.56s-1.729 36.36-36.43 51.74c0 0-64.68 26.149-140.3 23.359l1.98.07c-75.62 2.79-140.31-23.36-140.31-23.36-34.7-15.38-36.42-51.739-36.42-51.739l-.89-336.561c0-30.63 7.27-38.67 23.21-47.05 0 0 25.02-19.88 71.28-27.52"/><path d="M257.51 286.81l-1.33 4.96s15.9 18.68 84.32 18.68h2.08c68.42 0 83.59-18.68 83.59-18.68l-1.18-4.38-19.91-74.13H277.26l-19.75 73.55zM647.09 354.81v369.07c0 11.96-9.689 21.65-21.64 21.65-5.97 0-11.391-2.42-15.311-6.34a21.579 21.579 0 0 1-6.34-15.311V354.81M393.29 211.31S380.56 143.24 372 108.25c-8.55-34.99-53.42-34.24-61.97.75-8.55 34.99-21.29 103.06-21.29 103.06M580.2 352.4V238.22h89.61V352.4"/><path stroke-linecap="round" stroke-linejoin="round" d="M569.82 354.81H681.37"/></g><path fill="none" d="M0 0h850.394v850.394H0z"/></svg>
